public/assets/icon_onboarding.svg

<svg fill="none" height="11" viewBox="0 0 13 11" width="13" xmlns="http://www.w3.org/2000/svg"><path d="m1 1.45931v.79412c0 2.19706 1.18585 4.11882 2.95122 5.18824v2.48823h8.04878v-1.05882c0-1.40824-2.86-2.11765-4.29268-2.11765h-.13415c-2.54878 0-4.69512-2.11765-4.69512-4.5v-.79412m4.82927-.529409c-.56925 0-1.11518.223109-1.5177.620249-.40251.39713-.62864.93576-.62864 1.4974 0 .56163.22613 1.10027.62864 1.4974.40252.39714.94845.62025 1.5177.62025.56924 0 1.11517-.22311 1.51769-.62025.40252-.39713.62865-.93577.62865-1.4974 0-.56164-.22613-1.10027-.62865-1.4974-.40252-.39714-.94845-.620249-1.51769-.620249z" stroke="#fff" stroke-width="1.5"/></svg>

<svg width="13" height="11" viewBox="0 0 13 11" fill="none" xmlns="http://www.w3.org/2000/svg">
<path d="M1 1.45931V2.25343C1 4.45049 2.18585 6.37225 3.95122 7.44167V9.9299H12V8.87108C12 7.46284 9.14 6.75343 7.70732 6.75343H7.57317C5.02439 6.75343 2.87805 4.63578 2.87805 2.25343V1.45931M7.70732 0.929901C7.13807 0.929901 6.59214 1.15301 6.18962 1.55015C5.78711 1.94728 5.56098 2.48591 5.56098 3.04755C5.56098 3.60918 5.78711 4.14782 6.18962 4.54495C6.59214 4.94209 7.13807 5.1652 7.70732 5.1652C8.27656 5.1652 8.82249 4.94209 9.22501 4.54495C9.62753 4.14782 9.85366 3.60918 9.85366 3.04755C9.85366 2.48591 9.62753 1.94728 9.22501 1.55015C8.82249 1.15301 8.27656 0.929901 7.70732 0.929901Z" stroke="white" stroke-width="1.5"/>
</svg>
